svg/u1f9d6_1f3fb_200d_2642.svg

<svg viewBox="0 0 128 128" xmlns="http://www.w3.org/2000/svg">
  <path id="steam_x5F_back_x5F_right_2_" d="M103.04,23.41 c4.24,11.31,3,25-8,32s-22,12-31,21c-4.28,4.28-19.36,20.49-19.38,47.5h57.91c0.16-0.17,0.3-0.34,0.46-0.5 c6.9-4.47,14.13-8.6,20.96-13.21V3.91H87.52C92.12,9.03,99.74,14.6,103.04,23.41z" enable-background="new " fill="#3BBCF7" opacity="0.45"/>
  <path id="steam_x5F_back_x5F_left_1_" d="M4,46.58v77.33h13.54 c-3.61-5.52-6.13-11.42-4.5-18.5c2-10,12.01-13.98,20-18c22.56-11.36,27.25-29.5,28-50c0.46-12.69-4.17-24.66-12.88-33.5H12.17 C31.29,27.91,5.32,45.83,4,46.58z" enable-background="new " fill="#83D3F7" opacity="0.45"/>
  <radialGradient id="SVGID_1_" cx="63.8676" cy="7.7958" gradientTransform="matrix(1 0 0 -0.4628 0 123.8097)" gradientUnits="userSpaceOnUse" r="55.1025">
    <stop offset="0.8771" stop-color="#ECEFF1"/>
    <stop offset="1" stop-color="#B0BEC5"/>
  </radialGradient>
  <path d="M64.13,95.91c-0.04,0-0.09,0-0.13,0c-25.49,0.03-52,7.28-52,25.06v2.94h1h1h100h1h1v-2.94 C116,104.22,89.74,95.91,64.13,95.91z" fill="url(#SVGID_1_)"/>
  <linearGradient id="body_3_" gradientTransform="matrix(1 0 0 -1 0 128)" gradientUnits="userSpaceOnUse" x1="64.3222" x2="64.3222" y1="31.5647" y2="1.2109">
    <stop offset="0.5" stop-color="#F9DDBD"/>
    <stop offset="1" stop-color="#FFD29C"/>
  </linearGradient>
  <path id="body_2_" d="M64.04,95.75c-29.63,0-21.57,19.55-16.57,28.17h34.32 C86.42,115.3,93.66,95.75,64.04,95.75z" fill="url(#body_3_)"/>
  <g id="robe_x5F_lapels_3_">
    <path d="M50.04,103.91c1.92-6.37,13.37-6.54,12.51-6.36c0.53-0.07,2.11-0.07,2.64,0 c-0.85-0.19,10.59-0.01,12.51,6.36c1.92,6.35-2.16,13.62-5.7,20h13.92c4.07-8.93,7.49-20.18,3.7-25.58 c-4.48-6.39-11.34-8.67-25.63-8.67c-14.29,0-21.39,2.28-25.88,8.67c-3.79,5.4-0.37,16.66,3.7,25.58h13.92 C52.2,117.54,48.13,110.26,50.04,103.91z" fill="#ECEFF1"/>
  </g>
  <g id="robe_x5F_lapels_1_">
    <radialGradient id="SVGID_2_" cx="84.4229" cy="20.398" gradientTransform="matrix(0.9946 0.1042 0.2204 -2.1033 -4.0405 141.7052)" gradientUnits="userSpaceOnUse" r="9.3039">
      <stop offset="0.6681" stop-color="#B0BEC5"/>
      <stop offset="1" stop-color="#ECEFF1" stop-opacity="0"/>
    </radialGradient>
    <path d="M89.36,123.84h-3.28c3.92-8.6,7.24-19.36,4.09-24.96c1.24,0.31,2.46,0.65,3.64,1.02 C95.74,106.62,92.74,116.16,89.36,123.84z" fill="url(#SVGID_2_)"/>
  </g>
  <g id="robe_x5F_lapels_2_">
    <radialGradient id="SVGID_3_" cx="753.091" cy="20.398" gradientTransform="matrix(-0.9946 0.1042 -0.2204 -2.1033 796.8164 72.0322)" gradientUnits="userSpaceOnUse" r="9.3039">
      <stop offset="0.6681" stop-color="#B0BEC5"/>
      <stop offset="1" stop-color="#ECEFF1" stop-opacity="0"/>
    </radialGradient>
    <path d="M38.39,123.84h3.28c-3.92-8.6-7.24-19.36-4.09-24.96c-1.24,0.31-2.46,0.65-3.64,1.02 C32.01,106.62,35.01,116.16,38.39,123.84z" fill="url(#SVGID_3_)"/>
  </g>
  <linearGradient id="body_4_" gradientTransform="matrix(1 0 0 -1 0 128)" gradientUnits="userSpaceOnUse" x1="64.0005" x2="64.0005" y1="20.5859" y2="38.503">
    <stop offset="0.5" stop-color="#F9DDBD"/>
    <stop offset="1" stop-color="#FFD29C"/>
  </linearGradient>
  <path id="body_1_" d="M54.92,89.99v9.98c0,4.51,3.7,8.17,8.26,8.17h1.65c4.56,0,8.26-3.66,8.26-8.17 v-9.98H54.92z" fill="url(#body_4_)"/>
  <path id="tone_1_" d="M54.94,104.73c-0.27-0.96-0.38-1.93-0.45-2.89l-0.23-2.89 c-0.14-1.93-0.26-3.85-0.33-5.78c-0.02-0.55,0.41-1.02,0.97-1.04s1.02,0.41,1.03,0.96c0,0.02,0,0.05,0,0.07 c-0.07,1.93-0.19,3.85-0.33,5.78l-0.23,2.89C55.32,102.8,55.21,103.76,54.94,104.73z" fill="#EDBD82"/>
  <path id="tone" d="M73.06,104.73c-0.27-0.96-0.38-1.93-0.45-2.89l-0.23-2.89c-0.14-1.93-0.26-3.85-0.32-5.78 c-0.02-0.55,0.41-1.02,0.96-1.04s1.02,0.41,1.04,0.96c0,0.02,0,0.05,0,0.07c-0.07,1.93-0.19,3.85-0.32,5.78l-0.23,2.89 C73.44,102.8,73.34,103.76,73.06,104.73z" fill="#EDBD82"/>
  <g id="ears">
    <path d="M91.2,50.43H36.55c-5.89,0-10.71,5.14-10.71,11.41s4.82,11.41,10.71,11.41H91.2 c5.89,0,10.71-5.14,10.71-11.41S97.1,50.43,91.2,50.43z" fill="#EDC391"/>
  </g>
  <path id="head" d="M63.88,11.07L63.88,11.07L63.88,11.07c-17.4,0-33.52,18.61-33.52,45.4 c0,26.64,16.61,39.81,33.52,39.81S97.4,83.1,97.4,56.46C97.4,29.68,81.28,11.07,63.88,11.07z" fill="#F9DDBD"/>
  <path id="mouth" d="M72.3,76.14c-3.18,1.89-13.63,1.89-16.81,0c-1.83-1.09-3.7,0.58-2.94,2.24 c0.75,1.63,6.44,5.42,11.37,5.42s10.55-3.79,11.3-5.42C75.97,76.72,74.13,75.05,72.3,76.14z" fill="#444444"/>
  <path id="nose" d="M67.74,68.06c-0.11-0.04-0.21-0.07-0.32-0.08h-7.08c-0.11,0.01-0.22,0.04-0.32,0.08 c-0.64,0.26-0.99,0.92-0.69,1.63c0.3,0.71,1.71,2.69,4.55,2.69s4.25-1.99,4.55-2.69C68.73,68.98,68.38,68.32,67.74,68.06z" fill="#DBA689"/>
  <g id="eyes">
    <path d="M47.51,60.3c-2.06,0-3.9-0.5-5.18-1.29c-0.55-0.34-0.87-0.14-0.77,0.5c0.37,2.48,2.9,4.4,5.95,4.4 c3.06,0,5.58-1.92,5.95-4.4c0.1-0.64-0.22-0.84-0.77-0.5C51.41,59.8,49.57,60.3,47.51,60.3z" fill="#312D2D"/>
    <path d="M80.12,60.3c-2.06,0-3.9-0.5-5.18-1.29c-0.55-0.34-0.87-0.14-0.77,0.5c0.38,2.48,2.9,4.4,5.95,4.4 s5.58-1.92,5.95-4.4c0.1-0.64-0.22-0.84-0.77-0.5C84.03,59.8,82.18,60.3,80.12,60.3z" fill="#312D2D"/>
  </g>
  <g id="eyebrows_1_">
    <path d="M39.9,50.73c3.18-4.51,10.66-4.66,14.41-0.82c0.65,0.67,1.34,1.53,0.85,2.5 c-0.54,1.07-1.65,0.9-2.56,0.53c-2.43-0.98-4.94-1.42-7.55-0.89c-1.13,0.23-2.1,0.7-3.17,1.08C40.44,53.62,38.97,52.12,39.9,50.73z " fill="#454140"/>
    <path d="M85.96,53.13c-2.23-0.97-4.49-1.53-6.95-1.25c-1.12,0.13-2.22,0.42-3.26,0.83 c-0.83,0.33-1.72,0.86-2.58,0.28c-2.45-1.69,1.89-4.44,3.17-4.99c2.76-1.19,6.05-1.08,8.72,0.31c1.06,0.55,2.21,1.35,2.84,2.4 C88.69,52.02,87.51,53.76,85.96,53.13z" fill="#454140"/>
  </g>
  <g id="hairGroup">
    <path id="hair_7_" d="M63.9,3.91L63.9,3.91c-0.01,0-0.01,0-0.02,0s-0.01,0-0.02,0v0 C18.42,4.16,27.73,56.06,27.73,56.06s2.04,5.35,2.97,7.71c0.13,0.34,0.63,0.3,0.71-0.05c0.97-4.34,4.46-19.73,6.22-24.41 c1.04-2.76,3.9-4.36,6.8-3.83c4.45,0.81,11.55,1.81,19.37,1.81c0.03,0,0.06,0,0.08,0s0.06,0,0.08,0c7.82,0,14.92-1,19.37-1.81 c2.9-0.53,5.76,1.08,6.79,3.83c1.75,4.66,5.22,19.96,6.2,24.36c0.08,0.36,0.58,0.39,0.71,0.05l2.98-7.67 C100.03,56.05,109.33,4.16,63.9,3.91z" fill="#312D2D"/>
    <radialGradient id="hairHighlights_1_" cx="63.8785" cy="81.0166" gradientTransform="matrix(1 0 0 -1.1282 0 138.3853)" gradientUnits="userSpaceOnUse" r="38.0923">
      <stop offset="0.7945" stop-color="#454140" stop-opacity="0"/>
      <stop offset="1" stop-color="#454140"/>
    </radialGradient>
    <path id="hairHighlights" d="M100.03,56.05c0,0,9.31-51.9-36.13-52.14v0 c-0.01,0-0.01,0-0.02,0h0c-0.01,0-0.01,0-0.02,0l0,0c-0.71,0-1.4,0.02-2.08,0.05c-1.35,0.06-2.66,0.16-3.92,0.31 c-0.01,0-0.03,0-0.04,0c-0.09,0.01-0.17,0.03-0.26,0.04C19.32,9.13,27.73,56.05,27.73,56.05l2.98,7.68 c0.13,0.34,0.62,0.31,0.7-0.05c0.98-4.39,4.46-19.71,6.22-24.37c1.04-2.76,3.9-4.36,6.8-3.83c4.45,0.81,11.55,1.81,19.37,1.81 c0.03,0,0.06,0,0.08,0s0.06,0,0.08,0c7.82,0,14.92-1,19.37-1.81c2.9-0.53,5.76,1.08,6.79,3.83c1.76,4.68,5.25,20.1,6.21,24.42 c0.08,0.36,0.57,0.39,0.7,0.05C97.97,61.43,100.03,56.05,100.03,56.05z" fill="url(#hairHighlights_1_)"/>
  </g>
  <path id="steam_x5F_front_x5F_left_1_" d="M48.04,60.66 c-6-5-16.19-7.77-20.88-5.77c-2.11,0.9-3.1,2.56-1.06,5.95c3.94,6.56,9.81,13.44,3.44,20.94C21.04,92.04,9.42,90.16,4,104.31v19.6 h26.63c1.25-27.5,24.29-23.94,25.5-42.79C56.82,70.43,53.04,64.66,48.04,60.66z" enable-background="new " fill="#FFFFFF" opacity="0.45"/>
  <path id="steam_x5F_front_x5F_right_1_" d="M124,42.8 c-16.29-24.22-42.01-20.4-39.29-16.68c2.16,2.96,8.5,7.79,12.37,15.88c2.58,5.39,4.54,11.94,2.07,17.38 c-7.45,16.36-21.45,19.36-28.78,25.86c-4.96,4.39-14.41,14.66-11,38.67h21.58c0,0,2.23-13.06,25.49-21.37 C119.88,97.75,124,87.32,124,87.32V42.8z" enable-background="new " fill="#FFFFFF" opacity="0.35"/>
</svg>

<svg viewBox="0 0 128 128" xmlns="http://www.w3.org/2000/svg">
  <defs>
    <radialGradient id="SVGID_1_" cx="63.8676" cy="-259.72732" gradientTransform="matrix(1 0 0 -0.4628 0 0)" gradientUnits="userSpaceOnUse" r="55.1025">
      <stop offset="0.8771" stop-color="#ECEFF1"/>
      <stop offset="1" stop-color="#B0BEC5"/>
    </radialGradient>
    <radialGradient id="SVGID_2_" cx="95.172041" cy="-46.44227" gradientTransform="matrix(0.9946 0.1042 0.2204 -2.1033 0 0)" gradientUnits="userSpaceOnUse" r="9.3039">
      <stop offset="0.6681" stop-color="#B0BEC5"/>
      <stop offset="1" stop-color="#ECEFF1" stop-opacity="0"/>
    </radialGradient>
    <radialGradient id="SVGID_3_" cx="-31.845341" cy="-52.735917" gradientTransform="matrix(-0.9946 0.1042 -0.2204 -2.1033 0 0)" gradientUnits="userSpaceOnUse" r="9.3039">
      <stop offset="0.6681" stop-color="#B0BEC5"/>
      <stop offset="1" stop-color="#ECEFF1" stop-opacity="0"/>
    </radialGradient>
    <linearGradient id="body_3_" gradientTransform="matrix(1 0 0 -1 0 0)" gradientUnits="userSpaceOnUse" x1="64.3222" x2="64.3222" y1="-96.4353" y2="-126.7891">
      <stop offset="0.5" stop-color="#F9DDBD"/>
      <stop offset="1" stop-color="#FFD29C"/>
    </linearGradient>
    <linearGradient id="body_4_" gradientTransform="matrix(1 0 0 -1 0 0)" gradientUnits="userSpaceOnUse" x1="64.0005" x2="64.0005" y1="-107.4141" y2="-89.497">
      <stop offset="0.5" stop-color="#F9DDBD"/>
      <stop offset="1" stop-color="#FFD29C"/>
    </linearGradient>
    <radialGradient id="hairHighlights_1_" cx="63.8785" cy="-41.643655" gradientTransform="matrix(1 0 0 -1.1282 0 0)" gradientUnits="userSpaceOnUse" r="38.0923">
      <stop offset="0.7945" stop-color="#454140" stop-opacity="0"/>
      <stop offset="1" stop-color="#454140"/>
    </radialGradient>
  </defs>
  <path id="steam_x5F_back_x5F_right_2_" d="M103.04,23.41 C107.28,34.72 106.04,48.41 95.04,55.41 C84.04,62.41 73.04,67.41 64.04,76.41 C59.76,80.69 44.68,96.9 44.66,123.91 L102.57,123.91 C102.73,123.74 102.87,123.57 103.03,123.41 C109.93,118.94 117.16,114.81 123.99,110.2 L123.99,3.91 L87.52,3.91 C92.12,9.03 99.74,14.6 103.04,23.41 Z" fill="#3BBCF7" opacity="0.45"/>
  <path id="steam_x5F_back_x5F_left_1_" d="M4,46.58 L4,123.91 L17.54,123.91 C13.93,118.39 11.41,112.49 13.04,105.41 C15.04,95.41 25.05,91.43 33.04,87.41 C55.6,76.05 60.29,57.91 61.04,37.41 C61.5,24.72 56.87,12.75 48.16,3.91 L12.17,3.91 C31.29,27.91 5.32,45.83 4,46.58 Z" fill="#83D3F7" opacity="0.45"/>
  <path d="M64.13,95.91 C64.09,95.91 64.04,95.91 64,95.91 C38.51,95.94 12,103.19 12,120.97 L12,123.91 L13,123.91 L14,123.91 L114,123.91 L115,123.91 L116,123.91 L116,120.97 C116,104.22 89.74,95.91 64.13,95.91 Z" fill="url(#SVGID_1_)"/>
  <path id="body_2_" d="M64.04,95.75 C34.41,95.75 42.47,115.3 47.47,123.92 L81.79,123.92 C86.42,115.3 93.66,95.75 64.04,95.75 Z" fill="url(#body_3_)"/>
  <path d="M50.04,103.91 C51.96,97.54 63.41,97.37 62.55,97.55 C63.08,97.48 64.66,97.48 65.19,97.55 C64.34,97.36 75.78,97.54 77.7,103.91 C79.62,110.26 75.54,117.53 72,123.91 L85.92,123.91 C89.99,114.98 93.41,103.73 89.62,98.33 C85.14,91.94 78.28,89.66 63.99,89.66 C49.7,89.66 42.6,91.94 38.11,98.33 C34.32,103.73 37.74,114.99 41.81,123.91 L55.73,123.91 C52.2,117.54 48.13,110.26 50.04,103.91 Z" fill="#ECEFF1"/>
  <path d="M89.36,123.84 L86.08,123.84 C90,115.24 93.32,104.48 90.17,98.88 C91.41,99.19 92.63,99.53 93.81,99.9 C95.74,106.62 92.74,116.16 89.36,123.84 Z" fill="url(#SVGID_2_)"/>
  <path d="M38.39,123.84 L41.67,123.84 C37.75,115.24 34.43,104.48 37.58,98.88 C36.34,99.19 35.12,99.53 33.94,99.9 C32.01,106.62 35.01,116.16 38.39,123.84 Z" fill="url(#SVGID_3_)"/>
  <path id="body_1_" d="M54.92,89.99 L54.92,99.97 C54.92,104.48 58.62,108.14 63.18,108.14 L64.83,108.14 C69.39,108.14 73.09,104.48 73.09,99.97 L73.09,89.99 L54.92,89.99 Z" fill="url(#body_4_)"/>
  <path id="tone_1_" d="M54.94,104.73 C54.67,103.77 54.56,102.8 54.49,101.84 L54.26,98.95 C54.12,97.02 54,95.1 53.93,93.17 C53.91,92.62 54.34,92.15 54.9,92.13 C55.46,92.11 55.92,92.54 55.93,93.09 C55.93,93.11 55.93,93.14 55.93,93.16 C55.86,95.09 55.74,97.01 55.6,98.94 L55.37,101.83 C55.32,102.8 55.21,103.76 54.94,104.73 Z" fill="#EDBD82"/>
  <path id="tone" d="M73.06,104.73 C72.79,103.77 72.68,102.8 72.61,101.84 L72.38,98.95 C72.24,97.02 72.12,95.1 72.06,93.17 C72.04,92.62 72.47,92.15 73.02,92.13 C73.57,92.11 74.04,92.54 74.06,93.09 C74.06,93.11 74.06,93.14 74.06,93.16 C73.99,95.09 73.87,97.01 73.74,98.94 L73.51,101.83 C73.44,102.8 73.34,103.76 73.06,104.73 Z" fill="#EDBD82"/>
  <path d="M91.2,50.43 L36.55,50.43 C30.66,50.43 25.84,55.57 25.84,61.84 C25.84,68.11 30.66,73.25 36.55,73.25 L91.2,73.25 C97.09,73.25 101.91,68.11 101.91,61.84 C101.91,55.57 97.1,50.43 91.2,50.43 Z" fill="#EDC391"/>
  <path id="head" d="M63.88,11.07 L63.88,11.07 L63.88,11.07 C46.48,11.07 30.36,29.68 30.36,56.47 C30.36,83.11 46.97,96.28 63.88,96.28 C80.79,96.28 97.4,83.1 97.4,56.46 C97.4,29.68 81.28,11.07 63.88,11.07 Z" fill="#F9DDBD"/>
  <path id="mouth" d="M72.3,76.14 C69.12,78.03 58.67,78.03 55.49,76.14 C53.66,75.05 51.79,76.72 52.55,78.38 C53.3,80.01 58.99,83.8 63.92,83.8 C68.85,83.8 74.47,80.01 75.22,78.38 C75.97,76.72 74.13,75.05 72.3,76.14 Z" fill="#444444"/>
  <path id="nose" d="M67.74,68.06 C67.63,68.02 67.53,67.99 67.42,67.98 L60.34,67.98 C60.23,67.99 60.12,68.02 60.02,68.06 C59.38,68.32 59.03,68.98 59.33,69.69 C59.63,70.4 61.04,72.38 63.88,72.38 C66.72,72.38 68.13,70.39 68.43,69.69 C68.73,68.98 68.38,68.32 67.74,68.06 Z" fill="#DBA689"/>
  <path d="M47.51,60.3 C45.45,60.3 43.61,59.8 42.33,59.01 C41.78,58.67 41.46,58.87 41.56,59.51 C41.93,61.99 44.46,63.91 47.51,63.91 C50.57,63.91 53.09,61.99 53.46,59.51 C53.56,58.87 53.24,58.67 52.69,59.01 C51.41,59.8 49.57,60.3 47.51,60.3 Z" fill="#312D2D"/>
  <path d="M80.12,60.3 C78.06,60.3 76.22,59.8 74.94,59.01 C74.39,58.67 74.07,58.87 74.17,59.51 C74.55,61.99 77.07,63.91 80.12,63.91 C83.17,63.91 85.7,61.99 86.07,59.51 C86.17,58.87 85.85,58.67 85.3,59.01 C84.03,59.8 82.18,60.3 80.12,60.3 Z" fill="#312D2D"/>
  <path d="M39.9,50.73 C43.08,46.22 50.56,46.07 54.31,49.91 C54.96,50.58 55.65,51.44 55.16,52.41 C54.62,53.48 53.51,53.31 52.6,52.94 C50.17,51.96 47.66,51.52 45.05,52.05 C43.92,52.28 42.95,52.75 41.88,53.13 C40.44,53.62 38.97,52.12 39.9,50.73 Z" fill="#454140"/>
  <path d="M85.96,53.13 C83.73,52.16 81.47,51.6 79.01,51.88 C77.89,52.01 76.79,52.3 75.75,52.71 C74.92,53.04 74.03,53.57 73.17,52.99 C70.72,51.3 75.06,48.55 76.34,48 C79.1,46.81 82.39,46.92 85.06,48.31 C86.12,48.86 87.27,49.66 87.9,50.71 C88.69,52.02 87.51,53.76 85.96,53.13 Z" fill="#454140"/>
  <path id="hair_7_" d="M63.9,3.91 L63.9,3.91 C63.89,3.91 63.89,3.91 63.88,3.91 C63.87,3.91 63.87,3.91 63.86,3.91 L63.86,3.91 C18.42,4.16 27.73,56.06 27.73,56.06 C27.73,56.06 29.77,61.41 30.7,63.77 C30.83,64.11 31.33,64.07 31.41,63.72 C32.38,59.38 35.87,43.99 37.63,39.31 C38.67,36.55 41.53,34.95 44.43,35.48 C48.88,36.29 55.98,37.29 63.8,37.29 C63.83,37.29 63.86,37.29 63.88,37.29 C63.9,37.29 63.94,37.29 63.96,37.29 C71.78,37.29 78.88,36.29 83.33,35.48 C86.23,34.95 89.09,36.56 90.12,39.31 C91.87,43.97 95.34,59.27 96.32,63.67 C96.4,64.03 96.9,64.06 97.03,63.72 L100.01,56.05 C100.03,56.05 109.33,4.16 63.9,3.91 Z" fill="#312D2D"/>
  <path id="hairHighlights" d="M100.03,56.05 C100.03,56.05 109.34,4.15 63.9,3.91 L63.9,3.91 C63.89,3.91 63.89,3.91 63.88,3.91 L63.88,3.91 C63.87,3.91 63.87,3.91 63.86,3.91 L63.86,3.91 C63.15,3.91 62.46,3.93 61.78,3.96 C60.43,4.02 59.12,4.12 57.86,4.27 C57.85,4.27 57.83,4.27 57.82,4.27 C57.73,4.28 57.65,4.3 57.56,4.31 C19.32,9.13 27.73,56.05 27.73,56.05 L30.71,63.73 C30.84,64.07 31.33,64.04 31.41,63.68 C32.39,59.29 35.87,43.97 37.63,39.31 C38.67,36.55 41.53,34.95 44.43,35.48 C48.88,36.29 55.98,37.29 63.8,37.29 C63.83,37.29 63.86,37.29 63.88,37.29 C63.9,37.29 63.94,37.29 63.96,37.29 C71.78,37.29 78.88,36.29 83.33,35.48 C86.23,34.95 89.09,36.56 90.12,39.31 C91.88,43.99 95.37,59.41 96.33,63.73 C96.41,64.09 96.9,64.12 97.03,63.78 C97.97,61.43 100.03,56.05 100.03,56.05 Z" fill="url(#hairHighlights_1_)"/>
  <path id="steam_x5F_front_x5F_left_1_" d="M48.04,60.66 C42.04,55.66 31.85,52.89 27.16,54.89 C25.05,55.79 24.06,57.45 26.1,60.84 C30.04,67.4 35.91,74.28 29.54,81.78 C21.04,92.04 9.42,90.16 4,104.31 L4,123.91 L30.63,123.91 C31.88,96.41 54.92,99.97 56.13,81.12 C56.82,70.43 53.04,64.66 48.04,60.66 Z" fill="#FFFFFF" opacity="0.45"/>
  <path id="steam_x5F_front_x5F_right_1_" d="M124,42.8 C107.71,18.58 81.99,22.4 84.71,26.12 C86.87,29.08 93.21,33.91 97.08,42 C99.66,47.39 101.62,53.94 99.15,59.38 C91.7,75.74 77.7,78.74 70.37,85.24 C65.41,89.63 55.96,99.9 59.37,123.91 L80.95,123.91 C80.95,123.91 83.18,110.85 106.44,102.54 C119.88,97.75 124,87.32 124,87.32 L124,42.8 Z" fill="#FFFFFF" opacity="0.35"/>
</svg>
